!!!OTL: 84. Zay gezunt
!!!Genre:	Zay gezunt
!!!Mode:	Minor
!!!Listening/dance:	listening
!!!One_Mode:	yes
**kern
*I"P1
*clefG2
*k[b-e-]
*g:
*M2/4
*>A
8d
=1
16b-LL
16aJ
8gJ
8gL
8gJ
=2
[4g
16gLL]
16d
16g
16b-JJ
=3
16aLL
16gJ
8f#XJ
8f#L
8f#J
=4
4.f#X
8d
=5
16dLL
16g
16f#X
16gJJ
16aLL
16cc
16b-
16aJJ
=6
4.g
8d
=7
16dLL
16g
16f#X
16gJJ
(16aLL
16b-J)
8gJ
=8
(16aLL
16b-J)
8gJ
8gL
8gJ
=9
16gLL
16b-
16a
16b-JJ
(16cc#XLL
16ddJ)
8b-J
=10
(16cc#XLL
16ddJ
8b-J)
8b-L
8b-J
=11
8dd
8r
(8.cc#XtL
16b-Jk)
=12
16ddLL
16ccn
16b-
16aJJ
4g
=13
16b-LL
16a
16g
16b-JJ
16aLL
16g
16f#X
16aJJ
*>A1
=14
4.g
*>A2
=15:|!
4g
8cc#X
=16!|:
*>B
(8qeen/
4.dd)
8cc#X
=17
((8qeen/
4.dd)
8cc#X)
=18
((8qqeen/
8ddL)
8cc#XJ)
((8qqee/
8ddL)
8cc#J)
=19
4.dd
8dd
=20
16ee-XLL
16ddJ
8ccnJ
8ccL
8ccJ
=21
16ddLL
16ccJ
8b-J
8b-L
8cc#XJ
=22
16ddLL
16cc#X
16dd
16cc#JJ
16ddLL
16cc#
16b-
16cc#JJ
=23
4dd
(8.ggL
16ddJk)
=24
16ee-LL
16ddJ
8ccJ
8ccL
8ccJ
=25
16ddLL
16ccJ
8b-J
8b-L
8b-J
=26
16b-LL
16a
16g
16b-JJ
16aLL
16g
16f#X
16aJJ
*>B1
=27
4.g
8cc#X
*>B2
=28:|!
4g
4g
==
*-
